X:94
T:Salvilettina
M:6/8
L:1/8
B:Thompson's Compleat Collection of 200 Favourite Country Dances, vol. 3 (London, 1773)
Z:Transcribed and edited by Flynn Titford-Mock, 2007
Z:abc's:AK/Fiddler's Companion
K:G
g2d2 | BA G2 | (G/A/B/c/) dc | B2 A2 | g d2 B | B G2 c | BGAF | G2 G,2 :|
|: B d2 c/B/ | A c2 B/A/ | B g2 d | B2 G2 | B d2 c/B/ | A c2 B/A/ | BGAF | G2 G,2 :|

